X: 208
T: Jenny in the Cotton Patch
C:Traditional
B: canberra pickers and fiddlers
B: old time tunes update
B: tunes
M:2/2
L:1/8
Q: 1/2=100
K:A
V:1 
(A2|:A)Bcd e2 d2 | (Bc)dd e2 e2 |([eB] [e2c2]) [ce] A2 AB | AFEF E A2 B | 
AFEF E(AA)B |[M:2/4]A4 (A4:|[M:2/2]|:A)BcA d2 ff | 
edef {f}=g3 f | edef abaf |[1 eaab a2 A2&nbsp;:|[2 eaab a2 ||
% abcbook-tune_id 67a7d9ecacf72a2259c8bf74
% abcbook-tune_composer_id 
% abcbook-link-0 https://www.youtube.com/watch?v=SccwS45cTsc
% abcbook-link-title-0 Jenny in the Cotton Patch
% abcbook-boost 0
% abcbook-difficulty 0
% abcbook-tags old time tunes
% abcbook-tablature 
% abcbook-transpose -2
% abcbook-tuning GDGD
% abcbook-lastupdated 1739276737692
% abcbook-src-url 
% abcbook-soundfonts 
% abcbook-repeats 1
%%MIDI transpose -2


